src/cmd/sc_renametable.svg

<svg viewBox="0 0 16 16" xmlns="http://www.w3.org/2000/svg"><path d="m2 2v12h1 6 1v-1-3-1-3h3v1h1v-4-1zm1 1h3v2h-3zm4 0h2v2h-2zm3 0h3v2h-3zm-7 3h3v3h-3zm4 0h2v3h-2zm-4 4h3v3h-3zm4 0h2v3h-2z" fill="#232629"/><path d="m11 8v1h1v4h-1v1h3v-1h-1v-4h1v-1z" fill="#762572"/></svg>

<?xml version="1.0" encoding="UTF-8" standalone="no"?>
<svg
   xmlns:dc="http://purl.org/dc/elements/1.1/"
   xmlns:cc="http://creativecommons.org/ns#"
   xmlns:rdf="http://www.w3.org/1999/02/22-rdf-syntax-ns#"
   xmlns:svg="http://www.w3.org/2000/svg"
   xmlns="http://www.w3.org/2000/svg"
   xmlns:sodipodi="http://sodipodi.sourceforge.net/DTD/sodipodi-0.dtd"
   xmlns:inkscape="http://www.inkscape.org/namespaces/inkscape"
   viewBox="0 0 16 16"
   version="1.1"
   id="svg6"
   sodipodi:docname="sc_renametable.svg"
   inkscape:version="0.92.4 (5da689c313, 2019-01-14)">
  <metadata
     id="metadata12">
    <rdf:RDF>
      <cc:Work
         rdf:about="">
        <dc:format>image/svg+xml</dc:format>
        <dc:type
           rdf:resource="http://purl.org/dc/dcmitype/StillImage" />
      </cc:Work>
    </rdf:RDF>
  </metadata>
  <defs
     id="defs10" />
  <sodipodi:namedview
     pagecolor="#ffffff"
     bordercolor="#666666"
     borderopacity="1"
     objecttolerance="10"
     gridtolerance="10"
     guidetolerance="10"
     inkscape:pageopacity="0"
     inkscape:pageshadow="2"
     inkscape:window-width="1920"
     inkscape:window-height="1011"
     id="namedview8"
     showgrid="true"
     inkscape:zoom="41.7193"
     inkscape:cx="3.4813096"
     inkscape:cy="3.0218579"
     inkscape:window-x="1920"
     inkscape:window-y="32"
     inkscape:window-maximized="1"
     inkscape:current-layer="svg6">
    <inkscape:grid
       type="xygrid"
       id="grid822" />
  </sodipodi:namedview>
  <path
     d="m 2,4 v 8 c 0,2 1,2 3,2 h 4 1 V 13 10 9 6 h 3 v 1 h 1 V 4 C 14,2 13,2 11,2 H 5 C 3,2 2,2 2,4 Z M 5,3 H 6 V 5 H 3 V 4 C 3,3 4,3 5,3 Z M 7,3 H 9 V 5 H 7 Z m 3,0 h 1 c 1,0 2,0 2,1 V 5 H 10 Z M 3,6 H 6 V 9 H 3 Z M 7,6 H 9 V 9 H 7 Z m -4,4 h 3 v 3 H 5 C 4,13 3,13 3,12 Z m 4,0 h 2 v 3 H 7 Z"
     id="path2"
     inkscape:connector-curvature="0"
     style="fill:#232629"
     sodipodi:nodetypes="cccccccccccccccccccccccccccccccccccccccccccccccccccccc" />
  <path
     d="m11 8v1h1v4h-1v1h3v-1h-1v-4h1v-1z"
     fill="#762572"
     id="path4" />
</svg>
